outputs/icons/communication/wifi_call_round.svg

<svg width="1200" height="1200" viewBox="0 0 1200 1200" fill="none" xmlns="http://www.w3.org/2000/svg"><g clip-path="url(#clip0_858_1955)"><path fill-rule="evenodd" d="M655.57 845L781.57 720C793.07 708.5 810.07 703.5 826.57 707L1010.07 743.5C1033.07 748 1050.07 768.5 1050.07 792.5V1000C1050.07 1028 1026.57 1051.5 998.57 1050C854.07 1041.5 718.57 997 600.07 928.5C464.069 849.5 350.569 736.5 271.569 600C202.569 481.5 158.569 346 150.069 201.5C148.569 173.5 172.069 150 200.069 150H407.569C431.569 150 452.069 167 456.569 190L494.069 374C497.069 390.5 492.069 407 480.569 419L355.569 545C427.069 670 530.57 773.5 655.57 845ZM824.565 150C920.565 150 1008.565 183.5 1077.065 240C1094.065 253.5 1095.065 279.5 1079.565 295L1079.065 295.5C1065.565 309.5 1044.065 310 1029.065 298C973.065 253 902.065 225.5 824.565 225.5C747.065 225.5 676.065 252.5 620.065 298C605.065 310 583.565 309 570.065 295.5L569.565 295C554.065 279.5 555.065 254 572.065 240C641.065 183.5 728.565 150 824.565 150ZM967.075 344.5C986.575 358 989.075 385.5 972.575 402C960.075 414.5 940.075 417.5 925.575 407C897.075 387 862.075 375 824.575 375C787.075 375 752.075 387 723.575 407C709.075 417.5 689.075 414.5 676.575 402C660.075 385.5 663.075 358 682.075 344.5C722.575 316.5 771.575 300 824.575 300C877.575 300 927.075 316.5 967.075 344.5ZM824.575 444.995C808.575 444.995 793.575 448.995 780.075 455.495C765.075 462.995 763.075 483.495 774.575 494.995L807.075 527.495C817.075 537.495 832.575 537.495 842.575 527.495L875.075 494.995C886.575 483.495 884.575 462.995 869.575 455.495C856.075 448.495 840.575 444.995 824.575 444.995Z" fill="#1D1E23"/></g><defs><clipPath id="clip0_858_1955"><path width="24" fill="white" d="M0 0H1200V1200H0V0z"/></clipPath></defs></svg>

<svg xmlns="http://www.w3.org/2000/svg" width="1200" height="1200" fill="none"><g fill="#000" clip-path="url(#a)"><path d="m655.57 845 126-125c11.5-11.5 28.5-16.5 45-13l183.5 36.5c23 4.5 40 25 40 49V1000c0 28-23.5 51.5-51.5 50-144.5-8.5-280-53-398.5-121.5-136.001-79-249.501-192-328.501-328.5-69-118.5-113-254-121.5-398.5-1.5-28 22-51.5 50-51.5h207.5c24 0 44.5 17 49 40l37.5 184c3 16.5-2 33-13.5 45l-125 126A807.2 807.2 0 0 0 655.57 845"/><path d="M824.565 150c96 0 184 33.5 252.5 90 17 13.5 18 39.5 2.5 55l-.5.5c-13.5 14-35 14.5-50 2.5-56-45-127-72.5-204.5-72.5s-148.5 27-204.5 72.5c-15 12-36.5 11-50-2.5l-.5-.5c-15.5-15.5-14.5-41 2.5-55 69-56.5 156.5-90 252.5-90"/><path d="M967.075 344.5c19.5 13.5 22 41 5.5 57.5-12.5 12.5-32.5 15.5-47 5-28.5-20-63.5-32-101-32s-72.5 12-101 32c-14.5 10.5-34.5 7.5-47-5-16.5-16.5-13.5-44 5.5-57.5 40.5-28 89.5-44.5 142.5-44.5s102.5 16.5 142.5 44.5M824.575 444.995c-16 0-31 4-44.5 10.5-15 7.5-17 28-5.5 39.5l32.5 32.5c10 10 25.5 10 35.5 0l32.5-32.5c11.5-11.5 9.5-32-5.5-39.5-13.5-7-29-10.5-45-10.5"/></g><defs><clipPath id="a"><path fill="#fff" d="M0 0h1200v1200H0z"/></clipPath></defs></svg>
